X: 285
T:An Dro #3
M:4/4
L:1/8
S:Claus Steinort, Ir-Trad, 3/97
O:Breton
N:Session in Doolin: Michael Queally, Noel O'Donoghue, Tola Custy, Cyril
N:O'Donoghue
K:Bm
Bffe ~f3e|dfef d2B2|cded cBA2|BdcA BAFA|
Bffe ~f3e|dfef d2B2|cded cBA2|BdcA ~B3A:|
BdcB A2 A2|ABcd cBBA|BdcB A2A2|ABcd ~B3A|
BdcB A2 A2|ABcd cBBA|BdcB A2A2|ABcd ~B3A:|
